build/Karasa-Jaga/scalable/actions/document-revert-symbolic-rtl.svg

<svg height="16" width="16" xmlns="http://www.w3.org/2000/svg"><g fill="#bebebe"><g transform="matrix(1 0 0 -.94507616 0 15.560609)"><path d="m2.21875.59375v14.8125h4.765625 6.796875v-11.5078125-.0859375l-3.40625-3.21875zm7.71875.65625 3.09375 2.6875.144531-.0390625.011719 10.8515625-5.1875.023438h-.0644531l-5.1230469-.023438.03125-13.46875z" fill-opacity=".902043"/><path d="m10.399923 1.0711876.121037 2.8764119 2.795.039625v-.4386957l-2.554758-2.4773408z"/></g><path d="m6.8748395 8.9878133 1.30062-1.519338-.7617281-.647597s-1.7618944-.4234069-2.6642164.00766c-2.235985 1.0682064-1.710735 3.3091137-2.401671 4.3148877l-.129094-3.3140726c.033215-1.0900766.157054-1.7889094 1.587698-2.5726174 2.6310876-1.4413117 4.9079038.0448044 4.9079038.0448044l.761728.647597 1.3006202-1.519338 1.46758 5.2054018z"/></g></svg>

<?xml version="1.0" encoding="UTF-8" standalone="no"?>
<!-- Created with Inkscape (http://www.inkscape.org/) -->

<svg
   xmlns:dc="http://purl.org/dc/elements/1.1/"
   xmlns:cc="http://creativecommons.org/ns#"
   xmlns:rdf="http://www.w3.org/1999/02/22-rdf-syntax-ns#"
   xmlns:svg="http://www.w3.org/2000/svg"
   xmlns="http://www.w3.org/2000/svg"
   xmlns:xlink="http://www.w3.org/1999/xlink"
   xmlns:sodipodi="http://sodipodi.sourceforge.net/DTD/sodipodi-0.dtd"
   xmlns:inkscape="http://www.inkscape.org/namespaces/inkscape"
   id="svg7384"
   height="16"
   width="16"
   version="1.1"
   inkscape:version="0.92.2 (unknown)"
   sodipodi:docname="document-revert-symbolic-rtl.svg">
  <defs
     id="defs10">
    <linearGradient
       id="linearGradient4565">
      <stop
         style="stop-color:#161616;stop-opacity:1;"
         offset="0"
         id="stop4567" />
      <stop
         style="stop-color:#3a3a3a;stop-opacity:1;"
         offset="1"
         id="stop4569" />
    </linearGradient>
    <linearGradient
       id="linearGradient3569">
      <stop
         style="stop-color:#161616;stop-opacity:1;"
         offset="0"
         id="stop3571" />
      <stop
         style="stop-color:#3a3a3a;stop-opacity:1;"
         offset="1"
         id="stop3573" />
    </linearGradient>
    <linearGradient
       y2="-40.636906"
       x2="54.675591"
       y1="40.918156"
       x1="136.23065"
       gradientUnits="userSpaceOnUse"
       id="linearGradient4548"
       xlink:href="#linearGradient3569"
       inkscape:collect="always" />
    <filter
       color-interpolation-filters="sRGB"
       id="filter7554">
      <feBlend
         mode="darken"
         in2="BackgroundImage"
         id="feBlend7556" />
    </filter>
  </defs>
  <sodipodi:namedview
     pagecolor="#ffffff"
     bordercolor="#666666"
     borderopacity="1"
     objecttolerance="10"
     gridtolerance="10"
     guidetolerance="10"
     inkscape:pageopacity="0"
     inkscape:pageshadow="2"
     inkscape:window-width="1317"
     inkscape:window-height="716"
     id="namedview8"
     showgrid="false"
     inkscape:zoom="20.85965"
     inkscape:cx="15.02895"
     inkscape:cy="3.3699296"
     inkscape:window-x="49"
     inkscape:window-y="27"
     inkscape:window-maximized="1"
     inkscape:current-layer="svg7384" />
  <metadata
     id="metadata90">
    <rdf:RDF>
      <cc:Work
         rdf:about="">
        <dc:format>image/svg+xml</dc:format>
        <dc:type
           rdf:resource="http://purl.org/dc/dcmitype/StillImage" />
        <dc:title>Gnome Symbolic Icon Theme</dc:title>
      </cc:Work>
    </rdf:RDF>
  </metadata>
  <title
     id="title9167">Gnome Symbolic Icon Theme</title>
  <g
     id="g1872">
    <g
       transform="matrix(1,0,0,-0.94507616,0,15.560609)"
       id="g835">
      <path
         inkscape:connector-curvature="0"
         style="fill:#bebebe;fill-opacity:0.9020427;stroke:none"
         d="m 2.21875,0.59375 v 14.8125 H 6.984375 13.78125 V 3.8984375 3.8125 L 10.375,0.59375 Z M 9.9375,1.25 13.03125,3.9375 13.175781,3.8984375 13.1875,14.75 8,14.773438 H 7.9355469 L 2.8125,14.75 2.84375,1.28125 Z"
         id="rect7217" />
      <path
         style="fill:#bebebe;fill-opacity:1;stroke:none"
         d="m 10.399923,1.0711876 0.121037,2.8764119 2.795,0.039625 V 3.5485288 L 10.761202,1.071188 Z"
         id="path7212"
         inkscape:connector-curvature="0"
         sodipodi:nodetypes="cccccc" />
    </g>
    <path
       sodipodi:nodetypes="cccsccsccccc"
       inkscape:connector-curvature="0"
       id="path7068"
       style="fill:#bebebe;fill-opacity:1"
       d="m 6.8748395,8.9878133 1.30062,-1.519338 -0.7617281,-0.647597 c 0,0 -1.7618944,-0.4234069 -2.6642164,0.00766 C 2.51353,7.8967447 3.03878,10.137652 2.347844,11.143426 L 2.21875,7.8293534 C 2.251965,6.7392768 2.375804,6.040444 3.806448,5.256736 6.4375356,3.8154243 8.7143518,5.3015404 8.7143518,5.3015404 l 0.761728,0.647597 1.3006202,-1.519338 1.46758,5.2054018 z" />
  </g>
</svg>
